shader_type canvas_item;

uniform sampler2D SCREEN_TEXTURE: hint_screen_texture, filter_linear_mipmap;
uniform sampler2D noise_texture;
uniform float progress : hint_range(0.0, 1.0) = 0.0;

void fragment() {
	vec4 screen = texture(SCREEN_TEXTURE, SCREEN_UV);
	
	float noise_dissolve = step(progress, 1.0 - texture(noise_texture, SCREEN_UV).r);
	COLOR = vec4(screen.xyz * noise_dissolve, 1.0);
}

